src/icons/svg/filter.svg

<?xml version="1.0" encoding="UTF-8"?>
<svg width="40px" height="41px" viewBox="0 0 40 41" version="1.1" xmlns="http://www.w3.org/2000/svg"
>
    <path d="M22.0915145,40.0308889 C21.3760761,40.0308889 20.7960986,39.4509115 20.7960986,38.7354731 L20.7960986,13.0049588 C20.802336,12.6950478 20.919494,12.3976467 21.1263027,12.1667486 L29.584606,2.59083164 L4.18429576,2.59083164 L12.6171987,12.1413483 C12.8220978,12.3833954 12.9385467,12.6879541 12.9474028,13.0049588 L12.9474028,27.8641403 L15.7160366,30.6073738 C16.0755847,30.9269067 16.228477,31.419355 16.1131199,31.8863335 C15.9977628,32.353312 15.6331524,32.7179223 15.166174,32.8332794 C14.6991955,32.9486365 14.2067472,32.7957443 13.8872143,32.4361961 L10.7883764,29.311958 C10.5539437,29.0639263 10.4184151,28.7386574 10.4073718,28.3975468 L10.4073718,13.4875647 L0.374249233,2.28602792 C-0.02112607,1.87972716 -0.113120434,1.26643139 0.145646441,0.762009306 C0.367020735,0.302291982 0.829270669,0.00723883244 1.33946102,0 L32.4802413,0 C32.9830196,0.0108560821 33.4360093,0.306284159 33.6486556,0.762009306 C33.9140418,1.2611552 33.8323488,1.87385294 33.4454531,2.28602792 L23.285329,13.6399666 L23.285329,38.8624746 C23.2251746,39.4907708 22.7209588,39.9842585 22.0915145,40.0308889 L22.0915145,40.0308889 Z"
          id="路径"></path>
    <path d="M38.4493142,19.7868416 L27.298578,19.7868416 C26.7842867,19.8902129 26.2584213,19.6732154 25.9666904,19.2372403 C25.6749595,18.8012652 25.6749595,18.232387 25.9666904,17.796412 C26.2584213,17.3604369 26.7842867,17.1434394 27.298578,17.2468106 L38.4493142,17.2468106 C38.9636055,17.1434394 39.489471,17.3604369 39.7812018,17.796412 C40.0729327,18.232387 40.0729327,18.8012652 39.7812018,19.2372403 C39.489471,19.6732154 38.9636055,19.8902129 38.4493142,19.7868416 L38.4493142,19.7868416 Z M38.4493142,27.9149409 L27.298578,27.9149409 C26.6936436,27.7933506 26.2584322,27.2619586 26.2584322,26.6449254 C26.2584322,26.0278922 26.6936436,25.4965002 27.298578,25.3749099 L38.4493142,25.3749099 C39.0542487,25.4965002 39.4894601,26.0278922 39.4894601,26.6449254 C39.4894601,27.2619586 39.0542487,27.7933506 38.4493142,27.9149409 L38.4493142,27.9149409 Z M38.4493142,36.0430402 L27.298578,36.0430402 C26.6936436,35.9214498 26.2584322,35.3900578 26.2584322,34.7730247 C26.2584322,34.1559915 26.6936436,33.6245995 27.298578,33.5030092 L38.4493142,33.5030092 C39.0542487,33.6245995 39.4894601,34.1559915 39.4894601,34.7730247 C39.4894601,35.3900578 39.0542487,35.9214498 38.4493142,36.0430402 Z"
          id="形状"></path>
</svg>

<svg width="40" height="41" xmlns="http://www.w3.org/2000/svg"><path d="M22.092 40.03c-.716 0-1.296-.58-1.296-1.295v-25.73c.006-.31.123-.607.33-.838l8.459-9.576h-25.4l8.432 9.55c.205.242.322.547.33.864v14.86l2.769 2.742a1.295 1.295 0 1 1-1.829 1.83l-3.099-3.125a1.397 1.397 0 0 1-.38-.914v-14.91L.373 2.286A1.32 1.32 0 0 1 .146.762C.367.302.829.007 1.339 0H32.48c.503.01.956.306 1.169.762a1.32 1.32 0 0 1-.204 1.524L23.285 13.64v25.222a1.295 1.295 0 0 1-1.193 1.169z"/><path d="M38.45 19.787H27.298a1.295 1.295 0 1 1 0-2.54h11.15a1.295 1.295 0 1 1 0 2.54zm0 8.128H27.298a1.295 1.295 0 0 1 0-2.54h11.15a1.295 1.295 0 0 1 0 2.54zm0 8.128H27.298a1.295 1.295 0 0 1 0-2.54h11.15a1.295 1.295 0 0 1 0 2.54z"/></svg>
